X:1
T:That Day of Wrath
T:That Day of Wrath
T:John Bacchus Dykes, 1861
T:Walter Scott, 1805
T:Public Domain Courtesy of the Cyber Hymnal™
C:John Bacchus Dykes, 1861
Z:Public Domain
Z:Courtesy of the Cyber Hymnal™
%%score ( 1 2 ) ( 3 4 )
L:1/8
Q:1/4=130
M:4/4
K:F
V:1 treble 
V:2 treble 
V:3 bass 
V:4 bass 
V:1
 [DF]4 [DF]2 [EG]2 | [FA]6 [Fd]2 | c4 B4 x2 | [FA]8 | [FA]4 [EA]2 [DB]2 | [Cc]4 F4 | %6
w: 1.~That day of|wrath, that|dread- ful|day,|When Heav’n and|earth shall|
w: 2.~When, shriv- eling|like a|parch- èd|scroll,|The flam- ing|heav’ns to-|
w: 3.~O on that|day, that|wrath- ful|day|When man to|judg- ment|
 [FA]4 [EG]4 x2 | F6 [CA]2 | [CA]6 [DA]2 | [DG]4 [^CA]4 | [DF]4 G4 | [^CE]8 | D4 D2 D2 | A6 [DG]2 | %14
w: pass a-|way! What|pow’r shall|be the|sin- ner’s|stay?|How shall he|meet that|
w: ge- ther|roll; When|loud- er|yet, and|yet more|dread;|Swells the high|trump that|
w: wakes from|clay, Be|Thou the|trem- bling|sin- ner’s|stay,|Though Heav’n and|earth shall|
 [DF]4 [^CE]4 | D8 |] %16
w: dread- ful|day?|
w: wakes the|dead.|
w: pass a-|way.|
V:2
 x8 | x8 | (F2 C2) (D2 E2) x2 | x8 | x8 | x4 F4 | x10 | F6 x2 | x8 | x8 | x4 (E2 D2) | x8 | %12
 D4 D2 D2 | A6 x2 | x8 | D8 |] %16
V:3
 [D,A,]4 [D,A,]2 [C,C]2 | [F,C]6 [B,,B,]2 | A,6 z2 G,2 | [F,A,]8 | [D,F,]4 [C,F,]2 [B,,F,]2 | %5
 (F,2 G,2) (A,2 B,2) | C6 z2 x2 | [F,A,]6 [F,A,]2 | [F,A,]6 [F,A,]2 | [E,B,]4 [A,,A,]4 | %10
 [D,A,]4 [G,,B,]4 | [A,,A,]8 | D,4 D,2 D,2 | A,6 [A,,B,]2 | [A,,A,]4 [A,,G,]4 | [D,F,]8 |] %16
V:4
 x8 | x8 | C,4 C,4 x2 | x8 | x8 | A,,4 D,4 | C,4 C,4 B,2 | x8 | x8 | x8 | x8 | x8 | D,4 D,2 D,2 | %13
 A,6 x2 | x8 | x8 |] %16

